X:1
T:Magnificat: "Quia fecit mihi magna"
T:Magnificat: "Quia fecit mihi magna"
T:Johann Sebastian Bach
T:by IMSLP - Scritto con MuseScore, un software libero e gratuito: http://musescore.org/it
T:by IMSLP - Scritto con MuseScore, un software libero e gratuito: http://musescore.org/it
C:Johann Sebastian Bach
Z:by IMSLP - Scritto con MuseScore, un software libero e gratuito: http://musescore.org/it
%%score 1 2 3
L:1/8
Q:1/4=67
M:4/4
K:A
V:1 bass nm="Basso"
V:2 bass nm="Organo e\nContinuo"
V:3 bass nm="Organo"
V:1
 z8 | z8 | z8 | z8 | z2"^Solo" A, A, A, G,/A,/ B, D, | C, A,, z2 z4 | z8 | z8 | %8
w: ||||Qui\- a fe\- cit _ mi\- hi|ma\- gna|||
 z2 A, A, A, G,/A,/ B, D, | C, A,, z E, D,/C,/D,/F,/ B, D, | %10
w: qui\- a fe\- cit _ mi\- hi|ma\- gna qui po _ _ _ _ _|
 C,/B,,/C,/E,/ A,C, B,,C,/D,/ E,/F,/G,/E,/ | A,/B,/C/B,/ A,/G,/F,/E,/ B, G,/ E,/ B,, ^D, | %12
w: _ _ _ _ _ _ _ _ _ _ _ _ _|* * * * * * * * * tens, qui po\- tens|
 E,2 z2 z4 | z2 E, E, E, ^D,/E,/ F, A,, | G,,/B,,/C,/^D,/ E,/F,/G,/E,/ C,/E,/F,/G,/ A,/B,/C/A,/ | %15
w: est;|qui\- a fe\- cit _ mi\- hi|ma _ _ _ _ _ _ _ _ _ _ _ _ _ _ _|
 B, G,/ E,/ C2- C/B,/A,/G,/ F,/E,/B, | E, G, A, B, ^E,2 (F,3/2G,/4A,/4) | %17
w: _ gna qui po _ _ _ _ _ _ tens|est, et san\- ctum no\- men- * *|
 G,C, z G, C/D/C/B,/ A,/G,/F,/E,/ | D,/C,/B,,/C,/ D, B, B, C, z A, | %19
w: e\- jus et san _ _ _ _ _ _ _|_ _ _ _ _ ctum no\- men, et|
 A, B,, B,, G, G,F,/^E,/ F, G,/A,/ | B, C/D/ G, C A, G,/A,/ B,/A,/ G,/F,/ | %21
w: san\- ctum no\- men e- * * jus, san- *|* ctum _ no\- men e\- jus _ san- * ctum _|
 ^B,/C/B,/C/ TC3/2B,/4C/4 ^D G, z G, | C,/^B,,/^D,/C,/ E,/D,/ F,/E,/ A,/G,/ ^B,/C/ (G,B,) | %23
w: no _ _ _ men _ _ e\- jus, et|san _ _ _ _ _ ctum- * no- * men _ e- *|
 C,2 z2 z4 | z2 C G, A, F, ^D, F, | (B,/A,/G,/F,/ E,) =D,/ C,/ F,E,/F,/ G,F,/G,/ | %26
w: jus;|qui\- a fe\- cit mi\- hi|ma _ _ _ gna qui po _ _ _ tens _ _|
 A, A,, =G,F,/E,/ F,2- F,/D,/C,/D,/ | A,/^G,/F,/E,/ A,/B,/ C (CB,) B, z | %28
w: est, et san _ _ _ _ _ _ _|_ _ _ _ _ _ ctum no- * men,|
 z (A,/B,/ C/B,/) (D/C/) (B,/A,/) (G,/A,/) E,2 | A,,2 z2 z4 | z8 | z8 | z8 | z8 |] %34
w: san _ _ _ ctum _ no _ men _ e\-|jus.|||||
V:2
 z2 A,A, A,G,/A,/ B,D, | C,2 CC CB,/C/ DF, | E,2 CE, D,2 B,D, | %3
 C,2 A,/G,/F,/E,/ D,/C,/B,,/A,,/ E,E,, | A,,zC,zE,zF,, z | A,,zCC CB,/C/ DF, | E,2 CE, D,2 B,D, | %7
 C,2 A,/G,/F,/E,/ D,/C,/B,,/A,,/ E,E,, | A,,zC,zE,zF,, z | A,,zCC CB,/C/ DF, | E,2 CC, B,,2 B,D, | %11
 C,2 A,/G,/F,/E,/ ^D,E,B,B,, | E,,2 E,E, E,^D,/E,/ F,A,, | G,,2 G,G, G,F,/G,/ A,C, | %14
 B,,2 G,B,, A,,2 F,A,, | G,,2 E,/^D,/C,/B,,/ A,,/G,,/F,,/E,,/ B,,B,, | E,,2 z2 z2 F,F, | %17
 F,^E,/F,/ G,B,, A,,2 A,A, | A,G,/A,/ B,D, C,2 A,C, | B,,2 G,B,, A,,2 F,/E,/D,/C,/ | %20
 B,,/A,,/G,,/F,,/ C,C,, F,,2 F,A,, | G,,2 E,G,, F,,2 ^D,F,, | %22
 E,,2 C/B,/A,/G,/ F,/E,/^D,/C,/ G,G,, | C,,2 C,C, C,^B,,/C,/ ^D,F,, | E,,2 E,E, E,^D,/E,/ F,A,, | %25
 G,,2 A,A, A,G,/A,/ B,D, | C,2 CC CB,/C/ DF, | C,2 CC, D,2 B,D, | %28
 C,2 A,/G,/F,/E,/ D,/C,/B,,/A,,/ E,E,, | A,,2 A,A, A,G,/A,/ B,D, | C,2 CC CB,/C/ DF, | %31
 E,2 CE, D,2 B,D, | C,2 A,/G,/F,/E,/ D,/C,/B,,/A,,/ E,E,, | A,,2 z2 z4 |] %34
V:3
 z2 A, A, A, G,/ A,/ B, D, | C,2 C C C B,/ C/ D F, | E,2 C E, D,2 B, D, | %3
 C,2 A,/ G,/ F,/ E,/ D,/ C,/ B,,/ A,,/ E, E,, | A,, z C, z E, z F,, z | A,, z C C C B,/ C/ D F, | %6
 E,2 C E, D,2 B, D, | C,2 A,/ G,/ F,/ E,/ D,/ C,/ B,,/ A,,/ E, E,, | A,, z C, z E, z F,, z | %9
 A,, z C C C B,/ C/ D F, | E,2 C C, B,,2 B, D, | C,2 A,/ G,/ F,/ E,/ ^D, E, B, B,, | %12
 E,,2 E, E, E, ^D,/ E,/ F, A,, | G,,2 G, G, G, F,/ G,/ A, C, | B,,2 G, B,, A,,2 F, A,, | %15
 G,,2 E,/ ^D,/ C,/ B,,/ A,,/ G,,/ F,,/ E,,/ B,, B,, | E,,2 z2 z2 F, F, | %17
 F, ^E,/ F,/ G, B,, A,,2 A, A, | A, G,/ A,/ B, D, C,2 A, C, | B,,2 G, B,, A,,2 F,/ E,/ D,/ C,/ | %20
 B,,/ A,,/ G,,/ F,,/ C, C,, F,,2 F, A,, | G,,2 E, G,, F,,2 ^D, F,, | %22
 E,,2 C/ B,/ A,/ G,/ F,/ E,/ ^D,/ C,/ G, G,, | C,,2 C, C, C, ^B,,/ C,/ ^D, F,, | %24
 E,,2 E, E, E, ^D,/ E,/ F, A,, | G,,2 A, A, A, G,/ A,/ B, D, | C,2 C C C B,/ C/ D F, | %27
 C,2 C C, D,2 B, D, | C,2 A,/ G,/ F,/ E,/ D,/ C,/ B,,/ A,,/ E, E,, | A,,2 A, A, A, G,/ A,/ B, D, | %30
 C,2 C C C B,/ C/ D F, | E,2 C E, D,2 B, D, | C,2 A,/ G,/ F,/ E,/ D,/ C,/ B,,/ A,,/ E, E,, | %33
 !fermata!A,,2 z2 z4 |] %34

